images/3232637.svg

<?xml version="1.0" encoding="UTF-8"?>
<svg xmlns="http://www.w3.org/2000/svg" xmlns:xlink="http://www.w3.org/1999/xlink" width="300pt" height="300pt" viewBox="0 0 300 300" version="1.1">
<defs>
<g>
<symbol overflow="visible" id="glyph0-0">
<path style="stroke:none;" d="M 0.796875 2.828125 L 0.796875 -11.28125 L 8.796875 -11.28125 L 8.796875 2.828125 Z M 1.703125 1.9375 L 7.90625 1.9375 L 7.90625 -10.390625 L 1.703125 -10.390625 Z M 1.703125 1.9375 "/>
</symbol>
<symbol overflow="visible" id="glyph0-1">
<path style="stroke:none;" d="M 1.578125 -11.671875 L 3.703125 -11.671875 L 8.875 -1.90625 L 8.875 -11.671875 L 10.40625 -11.671875 L 10.40625 0 L 8.28125 0 L 3.109375 -9.765625 L 3.109375 0 L 1.578125 0 Z M 1.578125 -11.671875 "/>
</symbol>
<symbol overflow="visible" id="glyph0-2">
<path style="stroke:none;" d="M 1.578125 -11.671875 L 3.15625 -11.671875 L 3.15625 -6.890625 L 8.890625 -6.890625 L 8.890625 -11.671875 L 10.46875 -11.671875 L 10.46875 0 L 8.890625 0 L 8.890625 -5.5625 L 3.15625 -5.5625 L 3.15625 0 L 1.578125 0 Z M 1.578125 -11.671875 "/>
</symbol>
<symbol overflow="visible" id="glyph0-3">
<path style="stroke:none;" d="M 6.3125 -10.59375 C 5.164062 -10.59375 4.253906 -10.164062 3.578125 -9.3125 C 2.898438 -8.457031 2.5625 -7.296875 2.5625 -5.828125 C 2.5625 -4.359375 2.898438 -3.195312 3.578125 -2.34375 C 4.253906 -1.488281 5.164062 -1.0625 6.3125 -1.0625 C 7.457031 -1.0625 8.363281 -1.488281 9.03125 -2.34375 C 9.695312 -3.195312 10.03125 -4.359375 10.03125 -5.828125 C 10.03125 -7.296875 9.695312 -8.457031 9.03125 -9.3125 C 8.363281 -10.164062 7.457031 -10.59375 6.3125 -10.59375 Z M 6.3125 -11.875 C 7.945312 -11.875 9.253906 -11.328125 10.234375 -10.234375 C 11.210938 -9.140625 11.703125 -7.671875 11.703125 -5.828125 C 11.703125 -3.984375 11.210938 -2.507812 10.234375 -1.40625 C 9.253906 -0.3125 7.945312 0.234375 6.3125 0.234375 C 4.664062 0.234375 3.351562 -0.3125 2.375 -1.40625 C 1.394531 -2.507812 0.90625 -3.984375 0.90625 -5.828125 C 0.90625 -7.671875 1.394531 -9.140625 2.375 -10.234375 C 3.351562 -11.328125 4.664062 -11.875 6.3125 -11.875 Z M 6.3125 -11.875 "/>
</symbol>
</g>
</defs>
<g id="surface28901">
<rect x="0" y="0" width="300" height="300" style="fill:rgb(100%,100%,100%);fill-opacity:1;stroke:none;"/>
<path style="fill:none;stroke-width:1.2;stroke-linecap:butt;stroke-linejoin:miter;stroke:rgb(0%,0%,0%);stroke-opacity:1;stroke-miterlimit:10;" d="M 30.75 134.621094 L 33.667969 96.484375 "/>
<path style="fill:none;stroke-width:1.2;stroke-linecap:butt;stroke-linejoin:miter;stroke:rgb(0%,0%,0%);stroke-opacity:1;stroke-miterlimit:10;" d="M 40.015625 131.496094 L 42.351562 100.984375 "/>
<path style="fill:none;stroke-width:1.2;stroke-linecap:butt;stroke-linejoin:miter;stroke:rgb(0%,0%,0%);stroke-opacity:1;stroke-miterlimit:10;" d="M 62.320312 156.21875 L 30.75 134.621094 "/>
<path style="fill:none;stroke-width:1.2;stroke-linecap:butt;stroke-linejoin:miter;stroke:rgb(0%,0%,0%);stroke-opacity:1;stroke-miterlimit:10;" d="M 33.667969 96.484375 L 68.15625 79.945312 "/>
<path style="fill:none;stroke-width:1.2;stroke-linecap:butt;stroke-linejoin:miter;stroke:rgb(0%,0%,0%);stroke-opacity:1;stroke-miterlimit:10;" d="M 68.15625 79.945312 L 99.726562 101.542969 "/>
<path style="fill:none;stroke-width:1.2;stroke-linecap:butt;stroke-linejoin:miter;stroke:rgb(0%,0%,0%);stroke-opacity:1;stroke-miterlimit:10;" d="M 66.234375 89.53125 L 91.488281 106.808594 "/>
<path style="fill:none;stroke-width:1.2;stroke-linecap:butt;stroke-linejoin:miter;stroke:rgb(0%,0%,0%);stroke-opacity:1;stroke-miterlimit:10;" d="M 99.726562 101.542969 L 96.808594 139.679688 "/>
<path style="fill:none;stroke-width:1.2;stroke-linecap:butt;stroke-linejoin:miter;stroke:rgb(0%,0%,0%);stroke-opacity:1;stroke-miterlimit:10;" d="M 99.726562 101.542969 L 116.972656 93.269531 "/>
<path style="fill:none;stroke-width:1.2;stroke-linecap:butt;stroke-linejoin:miter;stroke:rgb(0%,0%,100%);stroke-opacity:1;stroke-miterlimit:10;" d="M 116.972656 93.269531 L 134.214844 85 "/>
<path style="fill:none;stroke-width:1.2;stroke-linecap:butt;stroke-linejoin:miter;stroke:rgb(0%,0%,0%);stroke-opacity:1;stroke-miterlimit:10;" d="M 96.808594 139.679688 L 62.320312 156.21875 "/>
<path style="fill:none;stroke-width:1.2;stroke-linecap:butt;stroke-linejoin:miter;stroke:rgb(0%,0%,0%);stroke-opacity:1;stroke-miterlimit:10;" d="M 89.464844 133.21875 L 61.875 146.453125 "/>
<path style="fill:none;stroke-width:1.2;stroke-linecap:butt;stroke-linejoin:miter;stroke:rgb(0%,0%,100%);stroke-opacity:1;stroke-miterlimit:10;" d="M 134.214844 85 L 150 95.800781 "/>
<path style="fill:none;stroke-width:1.2;stroke-linecap:butt;stroke-linejoin:miter;stroke:rgb(0%,0%,0%);stroke-opacity:1;stroke-miterlimit:10;" d="M 150 95.800781 L 165.785156 106.597656 "/>
<path style=" stroke:none;fill-rule:nonzero;fill:rgb(100%,100%,100%);fill-opacity:1;" d="M 122.214844 75.5 L 146.214844 75.5 L 146.214844 94.5 L 122.214844 94.5 Z M 122.214844 75.5 "/>
<g style="fill:rgb(0%,0%,100%);fill-opacity:1;">
  <use xlink:href="#glyph0-1" x="122.214844" y="90.351562"/>
  <use xlink:href="#glyph0-2" x="134.183594" y="90.351562"/>
</g>
<path style="fill:none;stroke-width:1.2;stroke-linecap:butt;stroke-linejoin:miter;stroke:rgb(0%,0%,0%);stroke-opacity:1;stroke-miterlimit:10;" d="M 165.785156 106.597656 L 164.324219 125.667969 "/>
<path style="fill:none;stroke-width:1.2;stroke-linecap:butt;stroke-linejoin:miter;stroke:rgb(0%,0%,100%);stroke-opacity:1;stroke-miterlimit:10;" d="M 164.324219 125.667969 L 162.863281 144.738281 "/>
<path style="fill:none;stroke-width:1.2;stroke-linecap:butt;stroke-linejoin:miter;stroke:rgb(0%,0%,0%);stroke-opacity:1;stroke-miterlimit:10;" d="M 174.464844 111.097656 L 173.296875 126.355469 "/>
<path style="fill:none;stroke-width:1.2;stroke-linecap:butt;stroke-linejoin:miter;stroke:rgb(0%,0%,100%);stroke-opacity:1;stroke-miterlimit:10;" d="M 173.296875 126.355469 L 172.128906 141.609375 "/>
<path style="fill:none;stroke-width:1.2;stroke-linecap:butt;stroke-linejoin:miter;stroke:rgb(0%,0%,0%);stroke-opacity:1;stroke-miterlimit:10;" d="M 200.273438 90.058594 L 165.785156 106.597656 "/>
<path style="fill:none;stroke-width:1.2;stroke-linecap:butt;stroke-linejoin:miter;stroke:rgb(0%,0%,100%);stroke-opacity:1;stroke-miterlimit:10;" d="M 162.863281 144.738281 L 178.648438 155.535156 "/>
<path style="fill:none;stroke-width:1.2;stroke-linecap:butt;stroke-linejoin:miter;stroke:rgb(0%,0%,0%);stroke-opacity:1;stroke-miterlimit:10;" d="M 178.648438 155.535156 L 194.433594 166.335938 "/>
<path style=" stroke:none;fill-rule:nonzero;fill:rgb(100%,100%,100%);fill-opacity:1;" d="M 156.863281 135.238281 L 168.863281 135.238281 L 168.863281 154.238281 L 156.863281 154.238281 Z M 156.863281 135.238281 "/>
<g style="fill:rgb(0%,0%,100%);fill-opacity:1;">
  <use xlink:href="#glyph0-1" x="156.863281" y="150.089844"/>
</g>
<path style="fill:none;stroke-width:1.2;stroke-linecap:butt;stroke-linejoin:miter;stroke:rgb(0%,0%,0%);stroke-opacity:1;stroke-miterlimit:10;" d="M 194.433594 166.335938 L 211.679688 158.0625 "/>
<path style="fill:none;stroke-width:1.2;stroke-linecap:butt;stroke-linejoin:miter;stroke:rgb(0%,0%,100%);stroke-opacity:1;stroke-miterlimit:10;" d="M 211.679688 158.0625 L 228.921875 149.792969 "/>
<path style="fill:none;stroke-width:1.2;stroke-linecap:butt;stroke-linejoin:miter;stroke:rgb(0%,0%,0%);stroke-opacity:1;stroke-miterlimit:10;" d="M 193.992188 156.566406 L 207.785156 149.949219 "/>
<path style="fill:none;stroke-width:1.2;stroke-linecap:butt;stroke-linejoin:miter;stroke:rgb(0%,0%,100%);stroke-opacity:1;stroke-miterlimit:10;" d="M 207.785156 149.949219 L 221.582031 143.332031 "/>
<path style="fill:none;stroke-width:1.2;stroke-linecap:butt;stroke-linejoin:miter;stroke:rgb(0%,0%,0%);stroke-opacity:1;stroke-miterlimit:10;" d="M 194.433594 166.335938 L 191.515625 204.472656 "/>
<path style="fill:none;stroke-width:1.2;stroke-linecap:butt;stroke-linejoin:miter;stroke:rgb(0%,0%,100%);stroke-opacity:1;stroke-miterlimit:10;" d="M 228.921875 149.792969 L 230.382812 130.722656 "/>
<path style="fill:none;stroke-width:1.2;stroke-linecap:butt;stroke-linejoin:miter;stroke:rgb(0%,0%,0%);stroke-opacity:1;stroke-miterlimit:10;" d="M 230.382812 130.722656 L 231.84375 111.65625 "/>
<path style=" stroke:none;fill-rule:nonzero;fill:rgb(100%,100%,100%);fill-opacity:1;" d="M 222.921875 140.292969 L 234.921875 140.292969 L 234.921875 159.292969 L 222.921875 159.292969 Z M 222.921875 140.292969 "/>
<g style="fill:rgb(0%,0%,100%);fill-opacity:1;">
  <use xlink:href="#glyph0-1" x="222.921875" y="155.144531"/>
</g>
<path style="fill:none;stroke-width:1.2;stroke-linecap:butt;stroke-linejoin:miter;stroke:rgb(0%,0%,0%);stroke-opacity:1;stroke-miterlimit:10;" d="M 231.84375 111.65625 L 266.332031 95.113281 "/>
<path style="fill:none;stroke-width:1.2;stroke-linecap:butt;stroke-linejoin:miter;stroke:rgb(0%,0%,0%);stroke-opacity:1;stroke-miterlimit:10;" d="M 231.398438 101.886719 L 258.988281 88.652344 "/>
<path style="fill:none;stroke-width:1.2;stroke-linecap:butt;stroke-linejoin:miter;stroke:rgb(0%,0%,0%);stroke-opacity:1;stroke-miterlimit:10;" d="M 200.273438 90.058594 L 231.84375 111.65625 "/>
<path style="fill:none;stroke-width:1.2;stroke-linecap:butt;stroke-linejoin:miter;stroke:rgb(0%,0%,0%);stroke-opacity:1;stroke-miterlimit:10;" d="M 266.332031 95.113281 L 269.25 56.976562 "/>
<path style="fill:none;stroke-width:1.2;stroke-linecap:butt;stroke-linejoin:miter;stroke:rgb(0%,0%,0%);stroke-opacity:1;stroke-miterlimit:10;" d="M 269.25 56.976562 L 237.679688 35.378906 "/>
<path style="fill:none;stroke-width:1.2;stroke-linecap:butt;stroke-linejoin:miter;stroke:rgb(0%,0%,0%);stroke-opacity:1;stroke-miterlimit:10;" d="M 261.011719 62.246094 L 235.757812 44.964844 "/>
<path style="fill:none;stroke-width:1.2;stroke-linecap:butt;stroke-linejoin:miter;stroke:rgb(0%,0%,0%);stroke-opacity:1;stroke-miterlimit:10;" d="M 237.679688 35.378906 L 203.191406 51.917969 "/>
<path style="fill:none;stroke-width:1.2;stroke-linecap:butt;stroke-linejoin:miter;stroke:rgb(0%,0%,0%);stroke-opacity:1;stroke-miterlimit:10;" d="M 203.191406 51.917969 L 200.273438 90.058594 "/>
<path style="fill:none;stroke-width:1.2;stroke-linecap:butt;stroke-linejoin:miter;stroke:rgb(0%,0%,0%);stroke-opacity:1;stroke-miterlimit:10;" d="M 211.875 56.421875 L 209.539062 86.929688 "/>
<path style="fill:none;stroke-width:1.2;stroke-linecap:butt;stroke-linejoin:miter;stroke:rgb(0%,0%,0%);stroke-opacity:1;stroke-miterlimit:10;" d="M 191.515625 204.472656 L 220.652344 229.253906 "/>
<path style="fill:none;stroke-width:1.2;stroke-linecap:butt;stroke-linejoin:miter;stroke:rgb(0%,0%,0%);stroke-opacity:1;stroke-miterlimit:10;" d="M 188.597656 213.808594 L 211.910156 233.628906 "/>
<path style="fill:none;stroke-width:1.2;stroke-linecap:butt;stroke-linejoin:miter;stroke:rgb(0%,0%,0%);stroke-opacity:1;stroke-miterlimit:10;" d="M 158.945312 224.527344 L 191.515625 204.472656 "/>
<path style="fill:none;stroke-width:1.2;stroke-linecap:butt;stroke-linejoin:miter;stroke:rgb(0%,0%,0%);stroke-opacity:1;stroke-miterlimit:10;" d="M 220.652344 229.253906 L 213.371094 246.9375 "/>
<path style="fill:none;stroke-width:1.2;stroke-linecap:butt;stroke-linejoin:miter;stroke:rgb(100%,0%,0%);stroke-opacity:1;stroke-miterlimit:10;" d="M 213.371094 246.9375 L 206.089844 264.621094 "/>
<path style="fill:none;stroke-width:1.2;stroke-linecap:butt;stroke-linejoin:miter;stroke:rgb(100%,0%,0%);stroke-opacity:1;stroke-miterlimit:10;" d="M 206.089844 264.621094 L 187.023438 263.160156 "/>
<path style="fill:none;stroke-width:1.2;stroke-linecap:butt;stroke-linejoin:miter;stroke:rgb(0%,0%,0%);stroke-opacity:1;stroke-miterlimit:10;" d="M 187.023438 263.160156 L 167.953125 261.703125 "/>
<path style=" stroke:none;fill-rule:nonzero;fill:rgb(100%,100%,100%);fill-opacity:1;" d="M 200.089844 255.121094 L 213.089844 255.121094 L 213.089844 274.121094 L 200.089844 274.121094 Z M 200.089844 255.121094 "/>
<g style="fill:rgb(100%,0%,0%);fill-opacity:1;">
  <use xlink:href="#glyph0-3" x="200.089844" y="269.972656"/>
</g>
<path style="fill:none;stroke-width:1.2;stroke-linecap:butt;stroke-linejoin:miter;stroke:rgb(0%,0%,0%);stroke-opacity:1;stroke-miterlimit:10;" d="M 167.953125 261.703125 L 158.945312 224.527344 "/>
<path style="fill:none;stroke-width:1.2;stroke-linecap:butt;stroke-linejoin:miter;stroke:rgb(0%,0%,0%);stroke-opacity:1;stroke-miterlimit:10;" d="M 175.796875 255.863281 L 168.589844 226.125 "/>
</g>
</svg>

<svg xmlns="http://www.w3.org/2000/svg" xmlns:xlink="http://www.w3.org/1999/xlink" width="300pt" height="300pt" viewBox="0 0 300 300"><defs><symbol overflow="visible"><path d="M.797 2.828v-14.11h8V2.83zm.906-.89h6.203v-12.33H1.703zm0 0"/></symbol><symbol overflow="visible" id="a"><path d="M1.578-11.672h2.125l5.172 9.766v-9.766h1.53V0H8.282L3.11-9.766V0H1.577zm0 0"/></symbol><symbol overflow="visible" id="b"><path d="M1.578-11.672h1.578v4.78H8.89v-4.78h1.58V0H8.89v-5.563H3.157V0H1.578zm0 0"/></symbol><symbol overflow="visible" id="c"><path d="M6.313-10.594c-1.15 0-2.06.43-2.735 1.28-.68.857-1.015 2.017-1.015 3.486 0 1.47.335 2.633 1.015 3.484.676.856 1.586 1.28 2.735 1.28 1.144.002 2.05-.424 2.718-1.28.665-.85 1-2.015 1-3.484 0-1.47-.335-2.63-1-3.484-.667-.852-1.573-1.282-2.717-1.282zm0-1.28c1.632 0 2.94.546 3.92 1.64.978 1.093 1.47 2.562 1.47 4.406 0 1.844-.492 3.32-1.47 4.422-.98 1.093-2.288 1.64-3.92 1.64-1.65 0-2.96-.546-3.938-1.64-.98-1.102-1.47-2.578-1.47-4.422 0-1.844.49-3.313 1.47-4.406.977-1.094 2.29-1.64 3.938-1.64zm0 0"/></symbol></defs><g><path fill="#fff" d="M0 0h300v300H0z"/><path d="M30.75 134.62l2.918-38.136M40.016 131.496l2.336-30.512M62.32 156.22l-31.57-21.6M33.668 96.484l34.488-16.54M68.156 79.945l31.57 21.598M66.234 89.53l25.254 17.28M99.727 101.543L96.81 139.68M99.727 101.543l17.246-8.273" stroke-width="1.2" stroke="#000" stroke-miterlimit="10" fill="none"/><path d="M116.973 93.27L134.215 85" stroke-width="1.2" stroke="#00f" stroke-miterlimit="10" fill="none"/><path d="M96.81 139.68l-34.49 16.54M89.465 133.22l-27.59 13.233" stroke-width="1.2" stroke="#000" stroke-miterlimit="10" fill="none"/><path d="M134.215 85L150 95.8" stroke-width="1.2" stroke="#00f" stroke-miterlimit="10" fill="none"/><path d="M150 95.8l15.785 10.798" stroke-width="1.2" stroke="#000" stroke-miterlimit="10" fill="none"/><path d="M122.215 75.5h24v19h-24zm0 0" fill="#fff"/><g fill="#00f"><use xlink:href="#a" x="122.215" y="90.352"/><use xlink:href="#b" x="134.184" y="90.352"/></g><path d="M165.785 106.598l-1.46 19.07" stroke-width="1.2" stroke="#000" stroke-miterlimit="10" fill="none"/><path d="M164.324 125.668l-1.46 19.07" stroke-width="1.2" stroke="#00f" stroke-miterlimit="10" fill="none"/><path d="M174.465 111.098l-1.168 15.257" stroke-width="1.2" stroke="#000" stroke-miterlimit="10" fill="none"/><path d="M173.297 126.355l-1.168 15.254" stroke-width="1.2" stroke="#00f" stroke-miterlimit="10" fill="none"/><path d="M200.273 90.06l-34.488 16.538" stroke-width="1.2" stroke="#000" stroke-miterlimit="10" fill="none"/><path d="M162.863 144.738l15.785 10.797" stroke-width="1.2" stroke="#00f" stroke-miterlimit="10" fill="none"/><path d="M178.648 155.535l15.786 10.8" stroke-width="1.2" stroke="#000" stroke-miterlimit="10" fill="none"/><path d="M156.863 135.238h12v19h-12zm0 0" fill="#fff"/><use xlink:href="#a" x="156.863" y="150.09" fill="#00f"/><path d="M194.434 166.336l17.246-8.274" stroke-width="1.2" stroke="#000" stroke-miterlimit="10" fill="none"/><path d="M211.68 158.063l17.242-8.27" stroke-width="1.2" stroke="#00f" stroke-miterlimit="10" fill="none"/><path d="M193.992 156.566l13.793-6.617" stroke-width="1.2" stroke="#000" stroke-miterlimit="10" fill="none"/><path d="M207.785 149.95l13.797-6.618" stroke-width="1.2" stroke="#00f" stroke-miterlimit="10" fill="none"/><path d="M194.434 166.336l-2.918 38.137" stroke-width="1.2" stroke="#000" stroke-miterlimit="10" fill="none"/><path d="M228.922 149.793l1.46-19.07" stroke-width="1.2" stroke="#00f" stroke-miterlimit="10" fill="none"/><path d="M230.383 130.723l1.46-19.067" stroke-width="1.2" stroke="#000" stroke-miterlimit="10" fill="none"/><path d="M222.922 140.293h12v19h-12zm0 0" fill="#fff"/><use xlink:href="#a" x="222.922" y="155.145" fill="#00f"/><path d="M231.844 111.656l34.488-16.543M231.398 101.887l27.59-13.235M200.273 90.06l31.57 21.596M266.332 95.113l2.918-38.136M269.25 56.977L237.68 35.38M261.012 62.246l-25.254-17.28M237.68 35.38l-34.49 16.538M203.19 51.918l-2.917 38.14M211.875 56.422L209.54 86.93M191.516 204.473l29.136 24.78M188.598 213.81l23.312 19.82M158.945 224.527l32.57-20.054M220.652 229.254l-7.28 17.684" stroke-width="1.2" stroke="#000" stroke-miterlimit="10" fill="none"/><path d="M213.37 246.938l-7.28 17.683M206.09 264.62l-19.067-1.46" stroke-width="1.2" stroke="#f00" stroke-miterlimit="10" fill="none"/><path d="M187.023 263.16l-19.07-1.457" stroke-width="1.2" stroke="#000" stroke-miterlimit="10" fill="none"/><path d="M200.09 255.12h13v19h-13zm0 0" fill="#fff"/><use xlink:href="#c" x="200.09" y="269.973" fill="#f00"/><path d="M167.953 261.703l-9.008-37.176M175.797 255.863l-7.207-29.738" stroke-width="1.2" stroke="#000" stroke-miterlimit="10" fill="none"/></g></svg>
